assets/images/client-logo/footdistrict.svg

<?xml version="1.0" standalone="no"?>
<!DOCTYPE svg PUBLIC "-//W3C//DTD SVG 1.0//EN" "http://www.w3.org/TR/2001/REC-SVG-20010904/DTD/svg10.dtd">
<svg xmlns="http://www.w3.org/2000/svg" xmlns:xlink="http://www.w3.org/1999/xlink" id="body_1" width="547" height="82">

<g transform="matrix(1.1995614 0 0 1.2058823 0 0)">
    <path d="M88.5 47.3L94.9 47.3L94.9 36.7L111.4 36.7L111.4 32.100002L94.9 32.100002L94.9 24.800003L113.4 24.800003L113.4 20.200003L88.5 20.200003L88.5 47.3zM145.1 23.3C 143.70001 22.099998 142 21.199999 139.90001 20.599998C 137.80002 19.999998 135.40001 19.599998 132.70001 19.599998C 130.00002 19.599998 127.60001 19.899998 125.500015 20.499998C 123.40002 21.099998 121.70001 21.999998 120.30002 23.199999C 119.000015 24.3 118.000015 25.699999 117.30002 27.3C 116.60002 28.9 116.30002 30.599998 116.30002 32.5L116.30002 32.5L116.30002 35C 116.30002 36.9 116.60002 38.6 117.30002 40.2C 118.000015 41.800003 119.000015 43.100002 120.30002 44.3C 121.70002 45.5 123.40002 46.399998 125.500015 47C 127.60001 47.600002 130.00002 47.9 132.70001 47.9C 135.40001 47.9 137.80002 47.600002 139.90001 46.9C 142.00002 46.300003 143.70001 45.300003 145.1 44.2C 146.40001 43.100002 147.40001 41.7 148.1 40.100002C 148.8 38.500004 149.1 36.800003 149.1 34.9L149.1 34.9L149.1 32.5C 149.1 30.6 148.8 28.9 148.1 27.3C 147.40001 25.8 146.40001 24.4 145.1 23.3zM142.5 35.1C 142.5 36.399998 142.3 37.5 141.8 38.5C 141.3 39.5 140.7 40.4 139.8 41.1C 138.90001 41.799995 137.90001 42.3 136.7 42.699997C 135.49998 43.099995 134.2 43.199997 132.7 43.199997C 131.3 43.199997 129.9 42.999996 128.7 42.699997C 127.5 42.299995 126.5 41.799995 125.6 41.1C 124.7 40.4 124.1 39.5 123.6 38.5C 123.1 37.5 122.9 36.3 122.9 35.1L122.9 35.1L122.9 32.5C 122.9 31.2 123.1 30 123.6 29C 124.1 28 124.7 27.1 125.6 26.4C 126.5 25.699999 127.5 25.199999 128.7 24.8C 129.9 24.4 131.2 24.3 132.7 24.3C 134.04895 24.29948 135.39268 24.467447 136.7 24.8C 137.9 25.199999 138.9 25.699999 139.8 26.4C 140.70001 27.1 141.3 28 141.8 29C 142.3 30 142.5 31.2 142.5 32.5L142.5 32.5L142.5 35.1zM183.6 23.3C 182.20001 22.099998 180.5 21.199999 178.40001 20.599998C 176.30002 19.999998 173.90001 19.599998 171.20001 19.599998C 168.50002 19.599998 166.1 19.899998 164.00002 20.499998C 161.90002 21.099998 160.20001 21.999998 158.80002 23.199999C 157.50002 24.3 156.50002 25.699999 155.80002 27.3C 155.10002 28.9 154.80002 30.599998 154.80002 32.5L154.80002 32.5L154.80002 35C 154.80002 36.9 155.10002 38.6 155.80002 40.2C 156.50002 41.800003 157.50002 43.100002 158.80002 44.3C 160.20001 45.5 161.90002 46.399998 164.00002 47C 166.1 47.600002 168.50002 47.9 171.20001 47.9C 173.90001 47.9 176.30002 47.600002 178.40001 46.9C 180.50002 46.300003 182.20001 45.300003 183.6 44.2C 184.90001 43.100002 185.90001 41.7 186.6 40.100002C 187.3 38.500004 187.6 36.800003 187.6 34.9L187.6 34.9L187.6 32.5C 187.6 30.6 187.3 28.9 186.6 27.3C 185.90001 25.8 184.90001 24.4 183.6 23.3zM181 35.1C 181 36.399998 180.8 37.5 180.3 38.5C 179.8 39.5 179.2 40.4 178.3 41.1C 177.40001 41.799995 176.40001 42.3 175.2 42.699997C 173.99998 43.099995 172.7 43.199997 171.2 43.199997C 169.8 43.199997 168.4 42.999996 167.2 42.699997C 166 42.399998 165 41.799995 164.09999 41.1C 163.19998 40.4 162.59999 39.5 162.09999 38.5C 161.59999 37.5 161.4 36.3 161.4 35.1L161.4 35.1L161.4 32.5C 161.4 31.2 161.59999 30 162.09999 29C 162.59999 28 163.2 27.1 164.09999 26.4C 164.99998 25.699999 165.99998 25.199999 167.2 24.8C 168.40001 24.4 169.7 24.3 171.2 24.3C 172.54895 24.29948 173.89268 24.467447 175.2 24.8C 176.4 25.199999 177.4 25.699999 178.3 26.4C 179.20001 27.1 179.8 28 180.3 29C 180.8 30 181 31.2 181 32.5L181 32.5L181 35.1zM190.2 24.8L201.5 24.8L201.5 47.3L207.9 47.3L207.9 24.8L219.2 24.8L219.2 20.199999L190.2 20.199999zM250.79999 23.699999C 249.49998 22.599998 247.99998 21.699999 246.09999 21.099998C 244.2 20.499998 241.99998 20.199999 239.4 20.199999L239.4 20.199999L223.59999 20.199999L223.59999 47.3L239.4 47.3C 242 47.3 244.29999 47 246.2 46.399998C 248.1 45.799995 249.7 44.899998 251 43.699997C 252.2 42.6 253 41.399998 253.6 39.899998C 254.20001 38.499996 254.40001 36.899998 254.40001 35.199997L254.40001 35.199997L254.40001 32.299995C 254.40001 30.599995 254.1 28.999996 253.50002 27.499996C 252.90002 25.999996 252.00002 24.799995 250.80002 23.699997zM247.9 34.8C 247.9 36.1 247.7 37.2 247.29999 38.2C 246.89998 39.2 246.29999 40 245.49998 40.7C 244.69998 41.4 243.79999 41.9 242.69998 42.2C 241.52774 42.52687 240.31694 42.695034 239.09998 42.7L239.09998 42.7L230.19998 42.7L230.19998 24.8L239.09998 24.8C 240.59998 24.8 241.89998 25 242.99997 25.4C 244.09996 25.8 245.09998 26.3 245.79997 27.1C 246.49997 27.800001 247.09998 28.6 247.49997 29.5C 247.89996 30.4 248.09998 31.5 248.09998 32.5L248.09998 32.5L248.09998 34.8zM262.19998 20.199999L268.69998 20.199999L268.69998 47.3L262.19998 47.3zM301.69998 34.6C 300.99997 34 299.99997 33.5 298.9 33.1C 297.56503 32.623997 296.19394 32.25614 294.8 31.999998L294.8 31.999998L288.09998 30.899998C 286.39996 30.599998 285.19998 30.199997 284.49997 29.699997C 283.79996 29.199997 283.39996 28.499996 283.39996 27.499996C 283.39996 26.599997 283.79996 25.799995 284.69995 25.199997C 285.79996 24.399998 287.49994 24.099997 289.89996 24.099997C 292.59998 24.099997 294.59998 24.499996 295.89996 25.399996C 296.89996 26.099997 297.59998 27.099997 297.79996 28.599997L297.79996 28.599997L303.59995 28.599997C 303.49994 27.299997 303.19995 26.099997 302.59995 24.999996C 301.99994 23.899996 301.19995 22.999996 300.09995 22.199997C 297.69995 20.499996 294.39993 19.699997 289.89993 19.699997C 286.79993 19.699997 284.19992 20.099997 282.19992 20.899998C 280.39993 21.599998 278.9999 22.499998 278.0999 23.799997C 277.29993 24.899998 276.8999 26.199997 276.8999 27.599997C 276.8999 29.699997 277.5999 31.299997 278.8999 32.6C 280.1999 33.8 282.2999 34.699997 285.1999 35.199997L285.1999 35.199997L292.49988 36.499996C 294.1999 36.799995 295.39987 37.199997 296.1999 37.699997C 296.9999 38.199997 297.3999 38.899998 297.3999 39.899998C 297.3999 40.999996 296.8999 41.899998 295.7999 42.499996C 294.59988 43.199997 292.6999 43.599995 290.2999 43.599995C 287.3999 43.599995 285.2999 43.099995 283.8999 41.999996C 283.2999 41.599995 282.8999 41.099995 282.6999 40.499996C 282.3999 39.999996 282.2999 39.399998 282.2999 38.799995L282.2999 38.799995L276.1999 38.799995C 276.1999 40.099995 276.49988 41.299995 277.09988 42.399994C 277.6999 43.499992 278.59988 44.499992 279.7999 45.299995C 280.9999 46.199997 282.4999 46.799995 284.2999 47.299995C 286.09988 47.799995 288.09988 47.999996 290.2999 47.999996C 294.7999 47.999996 298.1999 47.299995 300.4999 45.899998C 301.69992 45.199997 302.4999 44.399998 303.0999 43.3C 303.69992 42.3 303.9999 41.1 303.9999 39.7C 303.9999 38.600002 303.7999 37.600002 303.3999 36.8C 302.9999 35.899998 302.4999 35.2 301.6999 34.6zM306.69998 24.8L318 24.8L318 47.3L324.5 47.3L324.5 24.8L335.7 24.8L335.7 20.199999L306.7 20.199999zM363.4 35.9C 365.1 35.300003 366.5 34.5 367.4 33.600002C 368.5 32.500004 369 31.000002 369 29.300003L369 29.300003L369 28.600002C 369 25.900002 368.1 23.800003 366.2 22.400002C 364.40002 21.000002 361.7 20.300001 358.30002 20.300001L358.30002 20.300001L341 20.300001L341 47.4L347.4 47.4L347.4 37.4L355.1 37.4L363.1 47.5L370.30002 47.4L361.7 36.5C 362.80002 36.2 363.40002 35.9 363.40002 35.9zM347.4 24.600002L358 24.600002C 359.6 24.600002 360.7 25.000002 361.5 25.700003C 362.2 26.400003 362.5 27.300003 362.5 28.500002L362.5 28.500002L362.5 28.800001C 362.5 30.1 362 31.1 361 31.7C 360 32.4 358.6 32.7 356.8 32.7L356.8 32.7L347.4 32.7L347.4 24.6zM378 20.200003L384.5 20.200003L384.5 47.300003L378 47.300003zM414.3 41.5C 412.69998 42.7 410.69998 43.2 408.19998 43.2C 406.8844 43.19431 405.57452 43.026375 404.3 42.7C 403.09998 42.3 402.09998 41.8 401.19998 41.100002C 400.3 40.400005 399.59998 39.500004 399.19998 38.500004C 398.69998 37.500004 398.49997 36.300003 398.49997 35.000004L398.49997 35.000004L398.49997 32.300003C 398.49997 31.000004 398.69998 29.900003 399.19998 28.800003C 399.69998 27.800003 400.3 26.900003 401.19998 26.200003C 402.09998 25.500002 403.09998 25.000002 404.3 24.600002C 405.5 24.200003 406.8 24.100002 408.3 24.100002C 410.69998 24.100002 412.69998 24.700003 414.3 25.800003C 415.8 26.900003 416.8 28.400003 417.19998 30.300003L417.19998 30.300003L423.59998 30.300003C 423.3 28.700003 422.89996 27.200003 422.09998 25.900003C 421.39996 24.600004 420.39996 23.400003 419.09998 22.500004C 417.8 21.500004 416.3 20.800003 414.39996 20.200005C 412.59998 19.700005 410.49997 19.400005 408.29996 19.400005C 405.59995 19.400005 403.19995 19.700005 401.09995 20.300005C 398.99994 20.900005 397.29996 21.800005 395.89993 23.000006C 394.59995 24.100006 393.59995 25.500006 392.89993 27.100006C 392.19992 28.700006 391.89993 30.400005 391.89993 32.300007L391.89993 32.300007L391.89993 35C 391.89993 36.9 392.19992 38.6 392.89993 40.2C 393.59995 41.800003 394.59995 43.100002 395.89993 44.3C 397.29993 45.5 398.99994 46.399998 401.09995 47C 403.19995 47.600002 405.59995 47.9 408.29996 47.9C 410.42606 47.912514 412.54443 47.64351 414.59995 47.100002C 416.39993 46.500004 417.99994 45.800003 419.29996 44.7C 420.49997 43.7 421.49997 42.600002 422.19995 41.3C 422.89993 39.999996 423.39996 38.6 423.59995 37.1L423.59995 37.1L417.19995 37.1C 416.69995 39 415.79996 40.5 414.29996 41.5zM425.9 20.2L425.9 24.800001L437.19998 24.800001L437.19998 47.300003L443.59998 47.300003L443.59998 24.8L454.89996 24.8L454.89996 20.199999zM1.1 1.1L1.1 66.4L66.4 66.4L66.4 1.1L1.1 1.1zM21.5 60.8L6.7 60.8L6.7 6.799999L40.2 6.799999L40.2 21.599998L21.5 21.599998L21.5 60.8zM40.3 27.2L40.3 40.4L27.2 40.4L27.2 27.2L40.300003 27.2zM60.8 60.8L27.2 60.8L27.2 46L45.9 46L45.9 6.7L60.800003 6.7L60.800003 60.8z" stroke="none" fill="#000000" fill-rule="nonzero" />
</g>
</svg>

<svg xmlns="http://www.w3.org/2000/svg" width="456" height="67.5"  xmlns:v="https://vecta.io/nano"><path d="M88.5 47.3h6.4V36.7h16.5v-4.6H94.9v-7.3h18.5v-4.6H88.5zm56.6-24c-1.4-1.2-3.1-2.1-5.2-2.7s-4.5-1-7.2-1-5.1.3-7.2.9-3.8 1.5-5.2 2.7c-1.3 1.1-2.3 2.5-3 4.1s-1 3.3-1 5.2V35c0 1.9.3 3.6 1 5.2s1.7 2.9 3 4.1c1.4 1.2 3.1 2.1 5.2 2.7s4.5.9 7.2.9 5.1-.3 7.2-1c2.1-.6 3.8-1.6 5.2-2.7 1.3-1.1 2.3-2.5 3-4.1s1-3.3 1-5.2v-2.4c0-1.9-.3-3.6-1-5.2-.7-1.5-1.7-2.9-3-4zm-2.6 11.8c0 1.3-.2 2.4-.7 3.4s-1.1 1.9-2 2.6-1.9 1.2-3.1 1.6-2.5.5-4 .5c-1.4 0-2.8-.2-4-.5-1.2-.4-2.2-.9-3.1-1.6s-1.5-1.6-2-2.6-.7-2.2-.7-3.4v-2.6c0-1.3.2-2.5.7-3.5s1.1-1.9 2-2.6 1.9-1.2 3.1-1.6 2.5-.5 4-.5a16.2 16.2 0 0 1 4 .5c1.2.4 2.2.9 3.1 1.6s1.5 1.6 2 2.6.7 2.2.7 3.5v2.6zm41.1-11.8c-1.4-1.2-3.1-2.1-5.2-2.7s-4.5-1-7.2-1-5.1.3-7.2.9-3.8 1.5-5.2 2.7c-1.3 1.1-2.3 2.5-3 4.1s-1 3.3-1 5.2V35c0 1.9.3 3.6 1 5.2s1.7 2.9 3 4.1c1.4 1.2 3.1 2.1 5.2 2.7s4.5.9 7.2.9 5.1-.3 7.2-1c2.1-.6 3.8-1.6 5.2-2.7 1.3-1.1 2.3-2.5 3-4.1s1-3.3 1-5.2v-2.4c0-1.9-.3-3.6-1-5.2-.7-1.5-1.7-2.9-3-4zM181 35.1c0 1.3-.2 2.4-.7 3.4s-1.1 1.9-2 2.6-1.9 1.2-3.1 1.6-2.5.5-4 .5c-1.4 0-2.8-.2-4-.5s-2.2-.9-3.1-1.6-1.5-1.6-2-2.6-.7-2.2-.7-3.4v-2.6c0-1.3.2-2.5.7-3.5s1.1-1.9 2-2.6 1.9-1.2 3.1-1.6 2.5-.5 4-.5a16.2 16.2 0 0 1 4 .5c1.2.4 2.2.9 3.1 1.6s1.5 1.6 2 2.6.7 2.2.7 3.5v2.6zm9.2-10.3h11.3v22.5h6.4V24.8h11.3v-4.6h-29zm60.6-1.1c-1.3-1.1-2.8-2-4.7-2.6s-4.1-.9-6.7-.9h-15.8v27.1h15.8c2.6 0 4.9-.3 6.8-.9s3.5-1.5 4.8-2.7c1.2-1.1 2-2.3 2.6-3.8.6-1.4.8-3 .8-4.7v-2.9c0-1.7-.3-3.3-.9-4.8s-1.5-2.7-2.7-3.8zm-2.9 11.1c0 1.3-.2 2.4-.6 3.4s-1 1.8-1.8 2.5-1.7 1.2-2.8 1.5a13.61 13.61 0 0 1-3.6.5h-8.9V24.8h8.9c1.5 0 2.8.2 3.9.6s2.1.9 2.8 1.7c.7.7 1.3 1.5 1.7 2.4s.6 2 .6 3v2.3zm14.3-14.6h6.5v27.1h-6.5zm39.5 14.4c-.7-.6-1.7-1.1-2.8-1.5a26.43 26.43 0 0 0-4.1-1.1l-6.7-1.1c-1.7-.3-2.9-.7-3.6-1.2s-1.1-1.2-1.1-2.2c0-.9.4-1.7 1.3-2.3 1.1-.8 2.8-1.1 5.2-1.1 2.7 0 4.7.4 6 1.3 1 .7 1.7 1.7 1.9 3.2h5.8c-.1-1.3-.4-2.5-1-3.6s-1.4-2-2.5-2.8c-2.4-1.7-5.7-2.5-10.2-2.5-3.1 0-5.7.4-7.7 1.2-1.8.7-3.2 1.6-4.1 2.9-.8 1.1-1.2 2.4-1.2 3.8 0 2.1.7 3.7 2 5 1.3 1.2 3.4 2.1 6.3 2.6l7.3 1.3c1.7.3 2.9.7 3.7 1.2s1.2 1.2 1.2 2.2c0 1.1-.5 2-1.6 2.6-1.2.7-3.1 1.1-5.5 1.1-2.9 0-5-.5-6.4-1.6-.6-.4-1-.9-1.2-1.5-.3-.5-.4-1.1-.4-1.7h-6.1c0 1.3.3 2.5.9 3.6s1.5 2.1 2.7 2.9c1.2.9 2.7 1.5 4.5 2s3.8.7 6 .7c4.5 0 7.9-.7 10.2-2.1 1.2-.7 2-1.5 2.6-2.6.6-1 .9-2.2.9-3.6 0-1.1-.2-2.1-.6-2.9-.4-.9-.9-1.6-1.7-2.2zm5-9.8H318v22.5h6.5V24.8h11.2v-4.6h-29zm56.7 11.1c1.7-.6 3.1-1.4 4-2.3 1.1-1.1 1.6-2.6 1.6-4.3v-.7c0-2.7-.9-4.8-2.8-6.2-1.8-1.4-4.5-2.1-7.9-2.1H341v27.1h6.4v-10h7.7l8 10.1 7.2-.1-8.6-10.9c1.1-.3 1.7-.6 1.7-.6zm-16-11.3H358c1.6 0 2.7.4 3.5 1.1.7.7 1 1.6 1 2.8v.3c0 1.3-.5 2.3-1.5 2.9-1 .7-2.4 1-4.2 1h-9.4v-8.1zm30.6-4.4h6.5v27.1H378zm36.3 21.3c-1.6 1.2-3.6 1.7-6.1 1.7a16 16 0 0 1-3.9-.5c-1.2-.4-2.2-.9-3.1-1.6s-1.6-1.6-2-2.6c-.5-1-.7-2.2-.7-3.5v-2.7c0-1.3.2-2.4.7-3.5.5-1 1.1-1.9 2-2.6s1.9-1.2 3.1-1.6 2.5-.5 4-.5c2.4 0 4.4.6 6 1.7 1.5 1.1 2.5 2.6 2.9 4.5h6.4c-.3-1.6-.7-3.1-1.5-4.4-.7-1.3-1.7-2.5-3-3.4-1.3-1-2.8-1.7-4.7-2.3-1.8-.5-3.9-.8-6.1-.8-2.7 0-5.1.3-7.2.9s-3.8 1.5-5.2 2.7c-1.3 1.1-2.3 2.5-3 4.1s-1 3.3-1 5.2V35c0 1.9.3 3.6 1 5.2s1.7 2.9 3 4.1c1.4 1.2 3.1 2.1 5.2 2.7s4.5.9 7.2.9a24.09 24.09 0 0 0 6.3-.8c1.8-.6 3.4-1.3 4.7-2.4 1.2-1 2.2-2.1 2.9-3.4s1.2-2.7 1.4-4.2h-6.4c-.5 1.9-1.4 3.4-2.9 4.4zm11.6-21.3v4.6h11.3v22.5h6.4V24.8h11.3v-4.6zM1.1 1.1v65.3h65.3V1.1H1.1zm20.4 59.7H6.7v-54h33.5v14.8H21.5v39.2zm18.8-33.6v13.2H27.2V27.2h13.1zm20.5 33.6H27.2V46h18.7V6.7h14.9v54.1z"/></svg>
